X:1
T:[ID 3-27]
T:[ID 3-27]
T:Bezeichnung standardisiert: Polonaise Polonoise 18 In anderer Quelle: Polonaise, Niederschrift L. Mozart 1762 (Hinw. Th. Behr);
T:Urheber unbekannt Datum in der hier transkribierten schriftlichen Quelle: 1767
C:Urheber unbekannt
C:Datum in der hier transkribierten schriftlichen Quelle: 1767
%%score 1 2
L:1/8
M:3/4
K:D
V:1 treble nm="Primo"
V:2 treble nm="Secondo"
V:1
 dd/c/ dfeg | fe/d/ cBAG | FaEgDf | edcB cB/A/ | dd/c/ dfeg | fe/d/ cBAG | FaEgDf | ed/c/ d2 D2 :: %8
 fe/d/ a2 g2 | fe/d/ cBAG | FG/A/ BAGF | EdcB cB/A/ | dd/c/ dfeg | fe/d/ cBAG | FaEgDf | %15
 ed/c/ d2 D2 :| %16
V:2
 !fermata!FF/E/ FdAe | dc/B/ AGFE | aFgEfD | cBAG AG/F/ | FF/E/ FdAe | dc/B/ AGFE | aFgEfD | %7
 GF/E/ F2 F2 :: dA/F/ f2 e2 | dc/B/ AGFE | DE/F/ GFED | EBAG AG/F/ | FF/E/ FdAe | dc/B/ AGFE | %14
 aFgEfD | GF/E/ F2 F2 :| %16

